icons/svg/shield_12.svg

<?xml version="1.0" encoding="UTF-8"?>
<svg width="12px" height="12px" viewBox="0 0 12 12" version="1.1" xmlns="http://www.w3.org/2000/svg" xmlns:xlink="http://www.w3.org/1999/xlink">
    <!-- Generator: Sketch 59.1 (86144) - https://sketch.com -->
    <title>shield_12</title>
    <desc>Created with Sketch.</desc>
    <g id="New-Icon" stroke="none" stroke-width="1" fill="none" fill-rule="evenodd">
        <g id="shield_12" fill="#171B1F">
            <path d="M6.5,10.6274 L6.5,1.4344 L9.997,3.7594 C9.903,7.7984 7.674,9.8334 6.5,10.6274 L6.5,10.6274 Z M5.5,10.6274 C4.326,9.8334 2.097,7.7984 2.003,3.7594 L5.5,1.4344 L5.5,10.6274 Z M10.777,3.0764 L6.279,0.0854 C6.274,0.0834 6.27,0.0804 6.265,0.0774 C6.265,0.0764 6.265,0.0764 6.264,0.0764 L6.264,0.0764 C6.16,0.0124 6.04,-0.0126 5.93,0.0054 L5.929,0.0054 L5.929,0.0054 C5.904,0.0094 5.879,0.0154 5.855,0.0224 C5.854,0.0224 5.854,0.0224 5.854,0.0234 C5.804,0.0384 5.757,0.0614 5.713,0.0904 L1.223,3.0764 C1.084,3.1694 1,3.3254 1,3.4934 C1,9.6494 5.459,11.7964 5.785,11.9444 C5.845,11.9734 5.913,11.9904 5.983,11.9924 C5.989,11.9934 5.995,11.9934 6,11.9934 C6.005,11.9934 6.011,11.9934 6.017,11.9924 C6.087,11.9904 6.155,11.9734 6.215,11.9444 C6.541,11.7964 11,9.6494 11,3.4934 C11,3.3254 10.916,3.1694 10.777,3.0764 L10.777,3.0764 Z" id="fill"></path>
        </g>
    </g>
</svg>

<svg width="12" height="12" xmlns="http://www.w3.org/2000/svg"><path d="M6.5 10.627V1.434L9.997 3.76C9.903 7.8 7.674 9.833 6.5 10.627zm-1 0C4.326 9.833 2.097 7.798 2.003 3.76L5.5 1.434v9.193zm5.277-7.55L6.279.084 6.265.077h-.001A.492.492 0 005.93.004h-.001a.611.611 0 00-.074.017l-.001.001a.537.537 0 00-.141.067l-4.49 2.986A.502.502 0 001 3.493c0 6.156 4.459 8.303 4.785 8.451a.49.49 0 00.215.05c.005 0 .011 0 .017-.002a.49.49 0 00.198-.048C6.541 11.796 11 9.65 11 3.494a.502.502 0 00-.223-.418z" fill="#171B1F" fill-rule="evenodd"/></svg>
